X: 39812
T: There Was An Irish Lad
R: reel
M: 4/4
K: Aminor
E|EAAA|A3c|BcdB|^G3G|AEED|C3B,|A,AB^G|A3B|
c2Bc|d2Gd|e2dc|d2zG|ccBc|dGGc|egec|d4|
cBA2|BA^G2|AEE^F|G4|cBA2|BA^G2|ABcd|e2EE|
A2EA|G2DD|E2CE|DB,CD|E2CA,|AceD|EcB^G|A3||

